Komodo/apps/scalable/jokosher.svg

<?xml version="1.0" encoding="UTF-8" standalone="no"?>
<!-- Created with Inkscape (http://www.inkscape.org/) -->

<svg
   xmlns:dc="http://purl.org/dc/elements/1.1/"
   xmlns:cc="http://creativecommons.org/ns#"
   xmlns:rdf="http://www.w3.org/1999/02/22-rdf-syntax-ns#"
   xmlns:svg="http://www.w3.org/2000/svg"
   xmlns="http://www.w3.org/2000/svg"
   xmlns:xlink="http://www.w3.org/1999/xlink"
   xmlns:sodipodi="http://sodipodi.sourceforge.net/DTD/sodipodi-0.dtd"
   xmlns:inkscape="http://www.inkscape.org/namespaces/inkscape"
   width="96"
   height="96"
   id="svg11037"
   version="1.1"
   inkscape:version="0.48.3.1 r9886"
   sodipodi:docname="jokosher.svg">
  <defs
     id="defs11039">
    <linearGradient
       y2="1046.1001"
       x2="47.999954"
       y1="962.62189"
       x1="47.999954"
       gradientTransform="matrix(1.15,0,0,1.15,-7.1999462,-150.65291)"
       gradientUnits="userSpaceOnUse"
       id="linearGradient3886"
       xlink:href="#linearGradient3795"
       inkscape:collect="always" />
    <linearGradient
       id="linearGradient3795">
      <stop
         style="stop-color:#13a6fd;stop-opacity:1;"
         offset="0"
         id="stop3797" />
      <stop
         style="stop-color:#2975b6;stop-opacity:1;"
         offset="1"
         id="stop3799" />
    </linearGradient>
    <linearGradient
       y2="1046.1001"
       x2="47.999954"
       y1="962.62189"
       x1="47.999954"
       gradientTransform="matrix(1.15,0,0,1.15,-7.1999462,-150.65292)"
       gradientUnits="userSpaceOnUse"
       id="linearGradient11642"
       xlink:href="#linearGradient3700"
       inkscape:collect="always" />
    <linearGradient
       x1="48"
       y1="90"
       x2="48"
       y2="5.9877172"
       id="linearGradient3617"
       xlink:href="#linearGradient3700"
       gradientUnits="userSpaceOnUse" />
    <linearGradient
       id="linearGradient3700">
      <stop
         id="stop3702"
         style="stop-color:#f57900;stop-opacity:1"
         offset="0" />
      <stop
         id="stop3704"
         style="stop-color:#fab234;stop-opacity:1"
         offset="1" />
    </linearGradient>
    <radialGradient
       cx="48"
       cy="48"
       r="42"
       fx="48"
       fy="48"
       id="radialGradient3914"
       xlink:href="#linearGradient3908"
       gradientUnits="userSpaceOnUse" />
    <linearGradient
       id="linearGradient3908">
      <stop
         id="stop3910"
         style="stop-color:#d45500;stop-opacity:0.34351146"
         offset="0" />
      <stop
         id="stop3912"
         style="stop-color:#e65c00;stop-opacity:1"
         offset="1" />
    </linearGradient>
    <linearGradient
       x1="96"
       y1="16"
       x2="16"
       y2="64"
       id="linearGradient3063"
       xlink:href="#linearGradient3697"
       gradientUnits="userSpaceOnUse" />
    <linearGradient
       id="linearGradient3697">
      <stop
         id="stop3699"
         style="stop-color:#ffffff;stop-opacity:1"
         offset="0" />
      <stop
         id="stop3701"
         style="stop-color:#ffffff;stop-opacity:0"
         offset="1" />
    </linearGradient>
    <linearGradient
       x1="48"
       y1="20.220806"
       x2="48"
       y2="138.66119"
       id="linearGradient3613"
       xlink:href="#linearGradient3737"
       gradientUnits="userSpaceOnUse" />
    <linearGradient
       id="linearGradient3737">
      <stop
         id="stop3739"
         style="stop-color:#ffffff;stop-opacity:1"
         offset="0" />
      <stop
         id="stop3741"
         style="stop-color:#ffffff;stop-opacity:0"
         offset="1" />
    </linearGradient>
    <clipPath
       id="clipPath3613">
      <rect
         width="84"
         height="84"
         rx="6"
         ry="6"
         x="6"
         y="6"
         id="rect3615"
         style="fill:#ffffff;fill-opacity:1;fill-rule:nonzero;stroke:none" />
    </clipPath>
    <filter
       x="-0.192"
       y="-0.192"
       width="1.3839999"
       height="1.3839999"
       color-interpolation-filters="sRGB"
       id="filter3794">
      <feGaussianBlur
         id="feGaussianBlur3796"
         stdDeviation="5.28" />
    </filter>
    <clipPath
       clipPathUnits="userSpaceOnUse"
       id="clipPath3830">
      <rect
         x="6"
         y="6.0000038"
         width="84"
         height="84"
         style="fill:url(#linearGradient3834);fill-opacity:1"
         id="rect3832"
         rx="22.826086"
         ry="22.826086" />
    </clipPath>
    <linearGradient
       inkscape:collect="always"
       xlink:href="#linearGradient3700"
       id="linearGradient3834"
       gradientUnits="userSpaceOnUse"
       gradientTransform="matrix(1.05,0,0,1.05,-2.3999508,-1006.579)"
       x1="47.999954"
       y1="962.62189"
       x2="47.999954"
       y2="1046.1001" />
    <clipPath
       clipPathUnits="userSpaceOnUse"
       id="clipPath3009">
      <path
         id="path3011"
         d="m -2,956.36218 -96,0 0,33.5624 96,25.68742 0,-59.24982 z"
         style="opacity:0.15;fill:#ffffff;fill-opacity:1;stroke:none"
         inkscape:connector-curvature="0" />
    </clipPath>
  </defs>
  <sodipodi:namedview
     id="base"
     pagecolor="#ffffff"
     bordercolor="#666666"
     borderopacity="1.0"
     inkscape:pageopacity="0.0"
     inkscape:pageshadow="2"
     inkscape:zoom="3.959798"
     inkscape:cx="33.538031"
     inkscape:cy="59.964634"
     inkscape:document-units="px"
     inkscape:current-layer="layer1"
     showgrid="false"
     inkscape:window-width="1280"
     inkscape:window-height="750"
     inkscape:window-x="0"
     inkscape:window-y="22"
     inkscape:window-maximized="1"
     showguides="true"
     inkscape:guide-bbox="true">
    <sodipodi:guide
       orientation="0,1"
       position="-24.748737,0"
       id="guide11064" />
    <sodipodi:guide
       orientation="0,1"
       position="-23.233509,96"
       id="guide11066" />
    <sodipodi:guide
       orientation="1,0"
       position="0,54.800776"
       id="guide11068" />
    <sodipodi:guide
       orientation="1,0"
       position="96,51.012704"
       id="guide11070" />
    <sodipodi:guide
       orientation="0,1"
       position="-18.94036,48"
       id="guide11072" />
    <sodipodi:guide
       orientation="1,0"
       position="48,79.296975"
       id="guide11074" />
    <sodipodi:guide
       orientation="1,0"
       position="2,75.508903"
       id="guide11076" />
    <sodipodi:guide
       orientation="0,1"
       position="-77.27667,2"
       id="guide11078" />
    <sodipodi:guide
       orientation="1,0"
       position="94,77.781746"
       id="guide11080" />
    <sodipodi:guide
       orientation="0,1"
       position="-65.912454,94"
       id="guide11082" />
  </sodipodi:namedview>
  <metadata
     id="metadata11042">
    <rdf:RDF>
      <cc:Work
         rdf:about="">
        <dc:format>image/svg+xml</dc:format>
        <dc:type
           rdf:resource="http://purl.org/dc/dcmitype/StillImage" />
        <dc:title />
      </cc:Work>
    </rdf:RDF>
  </metadata>
  <g
     inkscape:label="Layer 1"
     inkscape:groupmode="layer"
     id="layer1"
     transform="translate(0,-956.36218)">
    <g
       transform="matrix(1.0952381,0,0,1.0952381,-4.5714286,951.79075)"
       id="g3047"
       clip-path="url(#clipPath3830)">
      <rect
         style="fill:url(#linearGradient3617);fill-opacity:1;fill-rule:nonzero;stroke:none"
         id="rect2419"
         y="6"
         x="6"
         ry="6"
         rx="6"
         height="84"
         width="84" />
      <path
         style="opacity:0.5;fill:url(#radialGradient3914);fill-opacity:1;stroke:none"
         id="path4141"
         inkscape:connector-curvature="0"
         d="M 6,75.125 46.65625,49.34375 20.5,90 39,90 48,49.78125 56.75,90 75.125,90 49.34375,49.34375 90,75.5 90,57 49.78125,48 90,39.25 90,20.875 49.34375,46.65625 75.5,6 57,6 48,46.21875 39.25,6 20.875,6 46.65625,46.65625 6,20.5 6,39 46.21875,48 6,56.75 6,75.125 z" />
      <path
         style="opacity:0.4;fill:url(#linearGradient3063);fill-opacity:1;fill-rule:nonzero;stroke:none"
         id="rect3690"
         inkscape:connector-curvature="0"
         d="M 12,6 C 8.676,6 6,8.676 6,12 L 6,54.875 C 23.60856,43.352969 50.22874,36 80,36 c 3.37799,0 6.71203,0.09685 10,0.28125 L 90,12 C 90,8.676 87.324,6 84,6 z" />
      <g
         id="layer5">
        <rect
           style="opacity:0.1;fill:url(#linearGradient3613);fill-opacity:1;fill-rule:nonzero;stroke:#ffffff;stroke-width:0.5;stroke-linecap:round;stroke-linejoin:miter;stroke-miterlimit:4;stroke-opacity:1;stroke-dasharray:none;stroke-dashoffset:0;filter:url(#filter3794)"
           id="rect3171"
           clip-path="url(#clipPath3613)"
           y="15"
           x="15"
           ry="12"
           rx="12"
           height="66"
           width="66" />
      </g>
      <g
         id="layer4">
        <path
           style="font-size:64px;font-style:normal;font-variant:normal;font-weight:bold;font-stretch:normal;text-align:start;line-height:125%;letter-spacing:0px;word-spacing:0px;writing-mode:lr-tb;text-anchor:start;opacity:0.3;fill:#2b1100;fill-opacity:1;stroke:none;font-family:Ubuntu;-inkscape-font-specification:Ubuntu Bold"
           id="path3891"
           inkscape:connector-curvature="0"
           d="m 55.503607,82.923548 c -0.880449,-1.8e-5 -2.169675,-0.09435 -3.867682,-0.283002 -1.760893,-0.188683 -3.396009,-0.534574 -4.905354,-1.037671 l 1.886675,-11.41438 c 0.943341,0.314442 1.823789,0.534554 2.641344,0.660337 0.75467,0.125773 1.729452,0.188663 2.924344,0.188667 2.201119,-4e-6 3.741901,-0.66034 4.622353,-1.981008 0.880441,-1.320673 1.320667,-3.238791 1.320672,-5.754357 l 0,-44.302134 14.055724,-3.147726 0,47.827195 c -2e-5,6.540467 -1.603692,11.382926 -4.811019,14.527393 -3.207359,3.144442 -7.829707,4.716668 -13.867057,4.716686" />
        <path
           style="font-size:64px;font-style:normal;font-variant:normal;font-weight:bold;font-stretch:normal;text-align:start;line-height:125%;letter-spacing:0px;word-spacing:0px;writing-mode:lr-tb;text-anchor:start;fill:#ffffff;fill-opacity:1;stroke:none;font-family:Ubuntu;-inkscape-font-specification:Ubuntu Bold"
           id="path3884"
           inkscape:connector-curvature="0"
           d="m 55.503607,81.923548 c -0.880449,-1.8e-5 -2.169675,-0.09435 -3.867682,-0.283002 -1.760893,-0.188683 -3.396009,-0.534574 -4.905354,-1.037671 l 1.886675,-11.41438 c 0.943341,0.314442 1.823789,0.534554 2.641344,0.660337 0.75467,0.125773 1.729452,0.188663 2.924344,0.188667 2.201119,-4e-6 3.741901,-0.66034 4.622353,-1.981008 0.880441,-1.320673 1.320667,-3.238791 1.320672,-5.754357 l 0,-44.302134 14.055724,-3.147726 0,47.827195 c -2e-5,6.540467 -1.603692,11.382926 -4.811019,14.527393 -3.207359,3.144442 -7.829707,4.716668 -13.867057,4.716686" />
      </g>
    </g>
    <rect
       ry="25"
       rx="25"
       id="rect3003"
       style="opacity:0.15;fill:#ffffff;fill-opacity:1"
       height="92"
       width="92"
       y="958.36218"
       x="-96"
       clip-path="url(#clipPath3009)"
       transform="translate(98,3.8281269e-7)" />
  </g>
</svg>

<?xml version="1.0" encoding="UTF-8" standalone="no"?>
<!-- Created with Inkscape (http://www.inkscape.org/) -->
<svg id="svg11037" xmlns:rdf="http://www.w3.org/1999/02/22-rdf-syntax-ns#" xmlns="http://www.w3.org/2000/svg" height="96" width="96" version="1.1" xmlns:cc="http://creativecommons.org/ns#" xmlns:xlink="http://www.w3.org/1999/xlink" xmlns:dc="http://purl.org/dc/elements/1.1/">
 <defs id="defs11039">
  <linearGradient id="linearGradient3617" y2="5.9877" xlink:href="#linearGradient3700" gradientUnits="userSpaceOnUse" x2="48" y1="90" x1="48"/>
  <linearGradient id="linearGradient3700">
   <stop id="stop3702" style="stop-color:#f57900" offset="0"/>
   <stop id="stop3704" style="stop-color:#fab234" offset="1"/>
  </linearGradient>
  <radialGradient id="radialGradient3914" gradientUnits="userSpaceOnUse" cy="48" cx="48" r="42">
   <stop id="stop3910" style="stop-color:#d45500;stop-opacity:.34351" offset="0"/>
   <stop id="stop3912" style="stop-color:#e65c00" offset="1"/>
  </radialGradient>
  <linearGradient id="linearGradient3063" y2="64" gradientUnits="userSpaceOnUse" x2="16" y1="16" x1="96">
   <stop id="stop3699" style="stop-color:#fff" offset="0"/>
   <stop id="stop3701" style="stop-color:#fff;stop-opacity:0" offset="1"/>
  </linearGradient>
  <linearGradient id="linearGradient3613" y2="138.66" gradientUnits="userSpaceOnUse" x2="48" y1="20.221" x1="48">
   <stop id="stop3739" style="stop-color:#fff" offset="0"/>
   <stop id="stop3741" style="stop-color:#fff;stop-opacity:0" offset="1"/>
  </linearGradient>
  <clipPath id="clipPath3613">
   <rect id="rect3615" style="fill:#fff" rx="6" ry="6" height="84" width="84" y="6" x="6"/>
  </clipPath>
  <filter id="filter3794" height="1.384" width="1.384" color-interpolation-filters="sRGB" y="-.192" x="-.192">
   <feGaussianBlur id="feGaussianBlur3796" stdDeviation="5.28"/>
  </filter>
  <clipPath id="clipPath3830" clipPathUnits="userSpaceOnUse">
   <rect id="rect3832" style="fill:url(#linearGradient3834)" rx="22.826" ry="22.826" height="84" width="84" y="6" x="6"/>
  </clipPath>
  <linearGradient id="linearGradient3834" y2="1046.1" xlink:href="#linearGradient3700" gradientUnits="userSpaceOnUse" x2="48" gradientTransform="matrix(1.05 0 0 1.05 -2.4 -1006.6)" y1="962.62" x1="48"/>
  <clipPath id="clipPath3009" clipPathUnits="userSpaceOnUse">
   <path id="path3011" style="opacity:.15;fill:#fff" d="m-2 956.36h-96v33.562l96 25.687v-59.25z"/>
  </clipPath>
 </defs>
 <metadata id="metadata11042">
  <rdf:RDF>
   <cc:Work rdf:about="">
    <dc:format>image/svg+xml</dc:format>
    <dc:type rdf:resource="http://purl.org/dc/dcmitype/StillImage"/>
    <dc:title/>
   </cc:Work>
  </rdf:RDF>
 </metadata>
 <g id="layer1" transform="translate(0 -956.36)">
  <g id="g3047" clip-path="url(#clipPath3830)" transform="matrix(1.0952 0 0 1.0952 -4.5714 951.79)">
   <rect id="rect2419" style="fill:url(#linearGradient3617)" rx="6" ry="6" height="84" width="84" y="6" x="6"/>
   <path id="path4141" d="m6 75.125 40.656-25.781-26.156 40.656h18.5l9-40.219 8.75 40.219h18.375l-25.781-40.656 40.656 26.156v-18.5l-40.219-9 40.219-8.75v-18.375l-40.656 25.781 26.156-40.656h-18.5l-9 40.219-8.75-40.219h-18.375l25.781 40.656-40.656-26.156v18.5l40.219 9-40.219 8.75v18.375z" style="opacity:.5;fill:url(#radialGradient3914)"/>
   <path id="rect3690" d="m12 6c-3.324 0-6 2.676-6 6v42.875c17.609-11.522 44.229-18.875 74-18.875 3.378 0 6.712 0.09685 10 0.28125v-24.281c0-3.324-2.676-6-6-6z" style="opacity:.4;fill:url(#linearGradient3063)"/>
   <g id="layer5">
    <rect id="rect3171" style="opacity:.1;filter:url(#filter3794);stroke:#fff;stroke-linecap:round;stroke-width:.5;fill:url(#linearGradient3613)" clip-path="url(#clipPath3613)" rx="12" ry="12" height="66" width="66" y="15" x="15"/>
   </g>
   <g id="layer4">
    <path id="path3891" d="m55.504 82.924c-0.88045-0.000018-2.1697-0.09435-3.8677-0.283-1.7609-0.18868-3.396-0.53457-4.9054-1.0377l1.8867-11.414c0.94334 0.31444 1.8238 0.53455 2.6413 0.66034 0.75467 0.12577 1.7295 0.18866 2.9243 0.18867 2.2011-0.000004 3.7419-0.66034 4.6224-1.981 0.88044-1.3207 1.3207-3.2388 1.3207-5.7544v-44.302l14.056-3.1477v47.827c-0.00002 6.5405-1.6037 11.383-4.811 14.527-3.2074 3.1444-7.8297 4.7167-13.867 4.7167" style="opacity:.3;fill:#2b1100"/>
    <path id="path3884" d="m55.504 81.924c-0.88045-0.000018-2.1697-0.09435-3.8677-0.283-1.7609-0.18868-3.396-0.53457-4.9054-1.0377l1.8867-11.414c0.94334 0.31444 1.8238 0.53455 2.6413 0.66034 0.75467 0.12577 1.7295 0.18866 2.9243 0.18867 2.2011-0.000004 3.7419-0.66034 4.6224-1.981 0.88044-1.3207 1.3207-3.2388 1.3207-5.7544v-44.302l14.056-3.1477v47.827c-0.00002 6.5405-1.6037 11.383-4.811 14.527-3.2074 3.1444-7.8297 4.7167-13.867 4.7167" style="fill:#fff"/>
   </g>
  </g>
  <rect id="rect3003" style="opacity:.15;fill:#fff" transform="translate(98 3.8281e-7)" clip-path="url(#clipPath3009)" rx="25" ry="25" height="92" width="92" y="958.36" x="-96"/>
 </g>
</svg>
